Numix-GalliumOS/64/mimetypes/application-x-7z-compressed.svg

<svg xmlns="http://www.w3.org/2000/svg" xmlns:xlink="http://www.w3.org/1999/xlink" width="64px" height="64px" viewBox="0 0 64 64" version="1.1">
<g id="surface1">
<path style=" stroke:none;fill-rule:nonzero;fill:rgb(75.686275%,58.431373%,32.54902%);fill-opacity:1;" d="M 10.671875 0 C 9.296875 0 8 1.355469 8 2.789062 L 8 61.210938 C 8 62.566406 9.375 64 10.671875 64 L 53.328125 64 C 54.625 64 56 62.566406 56 61.210938 L 56 18 L 38 0 Z M 10.671875 0 "/>
<path style=" stroke:none;fill-rule:nonzero;fill:rgb(0%,0%,0%);fill-opacity:0.196078;" d="M 8 48 L 8 61.335938 C 8 62.632812 9.375 64 10.664062 64 L 53.335938 64 C 54.625 64 56 62.632812 56 61.335938 L 56 48 Z M 8 48 "/>
<path style=" stroke:none;fill-rule:nonzero;fill:rgb(0%,0%,0%);fill-opacity:0.196078;" d="M 42 18 L 56 32 L 56 18 Z M 42 18 "/>
<path style=" stroke:none;fill-rule:nonzero;fill:rgb(100%,100%,100%);fill-opacity:0.392157;" d="M 38 0 L 55.984375 18 L 40.757812 18 C 39.410156 18 38 16.574219 38 15.226562 Z M 38 0 "/>
<path style=" stroke:none;fill-rule:evenodd;fill:rgb(97.647059%,97.647059%,97.647059%);fill-opacity:1;" d="M 18 0 L 24 0 L 24 6 L 18 6 Z M 18 0 "/>
<path style=" stroke:none;fill-rule:evenodd;fill:rgb(97.647059%,97.647059%,97.647059%);fill-opacity:1;" d="M 24 6 L 30 6 L 30 12 L 24 12 Z M 24 6 "/>
<path style=" stroke:none;fill-rule:evenodd;fill:rgb(97.647059%,97.647059%,97.647059%);fill-opacity:1;" d="M 18 12 L 24 12 L 24 18 L 18 18 Z M 18 12 "/>
<path style=" stroke:none;fill-rule:evenodd;fill:rgb(97.647059%,97.647059%,97.647059%);fill-opacity:1;" d="M 24 18 L 30 18 L 30 24 L 24 24 Z M 24 18 "/>
<path style=" stroke:none;fill-rule:evenodd;fill:rgb(97.647059%,97.647059%,97.647059%);fill-opacity:1;" d="M 18 24 L 24 24 L 24 30 L 18 30 Z M 18 24 "/>
<path style=" stroke:none;fill-rule:evenodd;fill:rgb(97.647059%,97.647059%,97.647059%);fill-opacity:1;" d="M 18 32 L 30 32 L 30 44 L 18 44 Z M 18 32 "/>
<path style=" stroke:none;fill-rule:nonzero;fill:rgb(100%,100%,100%);fill-opacity:1;" d="M 22.914062 62 C 22.96875 61.171875 23.125 60.304688 23.40625 59.378906 C 23.6875 58.449219 24.011719 57.535156 24.398438 56.628906 C 24.804688 55.722656 25.234375 54.871094 25.699219 54.070312 C 26.167969 53.253906 26.605469 52.558594 27.027344 51.976562 L 20.988281 51.976562 L 20.988281 50 L 30.371094 50 L 30.371094 51.800781 C 29.945312 52.199219 29.5 52.761719 28.996094 53.488281 C 28.503906 54.210938 28.03125 55.027344 27.582031 55.953125 C 27.152344 56.867188 26.765625 57.851562 26.421875 58.898438 C 26.097656 59.933594 25.894531 60.960938 25.816406 62 L 22.914062 62 "/>
<path style=" stroke:none;fill-rule:nonzero;fill:rgb(100%,100%,100%);fill-opacity:1;" d="M 41.789062 51.660156 C 41.121094 52.515625 40.515625 53.324219 39.953125 54.070312 C 39.398438 54.816406 38.878906 55.539062 38.394531 56.222656 C 37.921875 56.890625 37.464844 57.542969 37.03125 58.175781 C 36.609375 58.800781 36.207031 59.414062 35.820312 60.023438 L 42 60.023438 L 42 62 L 32.523438 62 L 32.523438 60.621094 C 32.867188 60.066406 33.234375 59.484375 33.621094 58.878906 C 34.007812 58.253906 34.441406 57.59375 34.914062 56.902344 C 35.398438 56.207031 35.917969 55.441406 36.46875 54.632812 C 37.042969 53.816406 37.675781 52.925781 38.351562 51.976562 L 32.832031 51.976562 L 32.832031 50 L 41.789062 50 L 41.789062 51.660156 "/>
</g>
</svg>

<svg xmlns="http://www.w3.org/2000/svg" viewBox="0 0 64 64">
 <g>
  <path d="m 10.672 0 c -1.375 0 -2.672 1.355 -2.672 2.789 l 0 58.42 c 0 1.355 1.375 2.789 2.672 2.789 l 42.656 0 c 1.297 0 2.672 -1.434 2.672 -2.789 l 0 -43.21 l -18 -18 m -27.328 0" style="fill:#c19553;fill-opacity:1;stroke:none;fill-rule:nonzero"/>
  <path d="m 8 48 l 0 13.336 c 0 1.297 1.375 2.664 2.664 2.664 l 42.672 0 c 1.289 0 2.664 -1.367 2.664 -2.664 l 0 -13.336 m -48 0" style="fill:#000;fill-opacity:0.196;stroke:none;fill-rule:nonzero"/>
  <path d="m 42 18 l 14 14 l 0 -14 m -14 0" style="fill:#000;fill-opacity:0.196;stroke:none;fill-rule:nonzero"/>
  <path d="m 38 0 l 17.984 18 l -15.227 0 c -1.348 0 -2.758 -1.426 -2.758 -2.773 m 0 -15.227" style="fill:#fff;fill-opacity:0.392;stroke:none;fill-rule:nonzero"/>
  <path d="m 18 0 l 6 0 l 0 6 l -6 0 m 0 -6" style="fill:#f9f9f9;fill-opacity:1;stroke:none;fill-rule:evenodd"/>
  <path d="m 24 6 l 6 0 l 0 6 l -6 0 m 0 -6" style="fill:#f9f9f9;fill-opacity:1;stroke:none;fill-rule:evenodd"/>
  <path d="m 18 12 l 6 0 l 0 6 l -6 0 m 0 -6" style="fill:#f9f9f9;fill-opacity:1;stroke:none;fill-rule:evenodd"/>
  <path d="m 24 18 l 6 0 l 0 6 l -6 0 m 0 -6" style="fill:#f9f9f9;fill-opacity:1;stroke:none;fill-rule:evenodd"/>
  <path d="m 18 24 l 6 0 l 0 6 l -6 0 m 0 -6" style="fill:#f9f9f9;fill-opacity:1;stroke:none;fill-rule:evenodd"/>
  <path d="m 18 32 l 12 0 l 0 12 l -12 0 m 0 -12" style="fill:#f9f9f9;fill-opacity:1;stroke:none;fill-rule:evenodd"/>
  <path d="m 22.914 62 c 0.055 -0.828 0.211 -1.695 0.492 -2.621 c 0.281 -0.93 0.605 -1.844 0.992 -2.75 c 0.406 -0.906 0.836 -1.758 1.301 -2.559 c 0.469 -0.816 0.906 -1.512 1.328 -2.094 l -6.04 0 l 0 -1.977 l 9.383 0 l 0 1.801 c -0.426 0.398 -0.871 0.961 -1.375 1.688 c -0.492 0.723 -0.965 1.539 -1.414 2.465 c -0.43 0.914 -0.816 1.898 -1.16 2.945 c -0.324 1.035 -0.527 2.063 -0.605 3.102 l -2.902 0" style="fill:#fff;fill-opacity:1;stroke:none;fill-rule:nonzero"/>
  <path d="m 41.789 51.66 c -0.668 0.855 -1.273 1.664 -1.836 2.41 c -0.555 0.746 -1.074 1.469 -1.559 2.152 c -0.473 0.668 -0.93 1.32 -1.363 1.953 c -0.422 0.625 -0.824 1.238 -1.211 1.848 l 6.18 0 l 0 1.977 l -9.477 0 l 0 -1.379 c 0.344 -0.555 0.711 -1.137 1.098 -1.742 c 0.387 -0.625 0.82 -1.285 1.293 -1.977 c 0.484 -0.695 1 -1.461 1.555 -2.27 c 0.574 -0.816 1.207 -1.707 1.883 -2.656 l -5.52 0 l 0 -1.977 l 8.957 0 l 0 1.66" style="fill:#fff;fill-opacity:1;stroke:none;fill-rule:nonzero"/>
 </g>
</svg>
